Suru++-Ubuntu/apps/scalable/chrome-remote-desktop.svg

<svg width="256" height="256" version="1.1" viewBox="0 0 67.73 67.73" xmlns="http://www.w3.org/2000/svg" xmlns:xlink="http://www.w3.org/1999/xlink">
 <defs>
  <linearGradient id="linearGradient1108" x1="296" x2="296" y1="-212" y2="236" gradientUnits="userSpaceOnUse">
   <stop style="stop-color:#ffffff" offset="0"/>
   <stop style="stop-color:#ffffff;stop-opacity:.09803922" offset=".125"/>
   <stop style="stop-color:#000000;stop-opacity:.09803922" offset=".925"/>
   <stop style="stop-color:#000000;stop-opacity:.49803922" offset="1"/>
  </linearGradient>
  <clipPath id="clipPath1082-3-367">
   <path d="M 361.9375,-212 C 507.2348,-212 528,-191.28677 528,-46.125 V 70.125 C 528,215.28618 507.2348,236 361.9375,236 H 214.0625 C 68.7652,236 48,215.28618 48,70.125 V -46.125 C 48,-191.28677 68.7652,-212 214.0625,-212 Z" style="fill:#8c59d9"/>
  </clipPath>
  <filter id="filter938" x="-.02" y="-.03" width="1.046" height="1.05" style="color-interpolation-filters:sRGB">
   <feGaussianBlur stdDeviation="2.32"/>
  </filter>
  <filter id="filter4569" x="-.01" y="-.01" width="1.023" height="1.025" style="color-interpolation-filters:sRGB">
   <feGaussianBlur stdDeviation="1.16"/>
  </filter>
  <linearGradient id="linearGradient2193" x1="88" x2="256" y1="28" y2="284" gradientTransform="matrix(.19843753 0 0 .19843753 2.1625684 232.38917)" gradientUnits="userSpaceOnUse">
   <stop style="stop-color:#fafafa" offset="0"/>
   <stop style="stop-color:#e1e1e1" offset="1"/>
  </linearGradient>
 </defs>
 <g transform="translate(0,-229.26666)">
  <path transform="matrix(.26458333 0 0 .26458333 -1.8735229e-8 232.67026)" d="m162.53675 3.5680001c72.64865 0 83.03125 10.356615 83.03125 82.937505v58.125005c0 72.58059-10.3826 82.9375-83.03125 82.9375h-73.937496c-72.648654 0-83.031254-10.35691-83.031254-82.9375v-58.125005c0-72.58089 10.3826-82.937505 83.031254-82.937505z" style="filter:url(#filter4569);opacity:.1"/>
  <path transform="matrix(.26458333 0 0 .26458333 -1.8735229e-8 232.67026)" d="m162.53675 5.5680001c72.64865 0 83.03125 10.356615 83.03125 82.937505v58.125005c0 72.58059-10.3826 82.9375-83.03125 82.9375h-73.937496c-72.648654 0-83.031254-10.35691-83.031254-82.9375v-58.125005c0-72.58089 10.3826-82.937505 83.031254-82.937505z" style="filter:url(#filter938);opacity:.2"/>
  <path d="m43.004513 233.61429c19.221622 0 21.968685 2.74019 21.968685 21.94388v15.37891c0 19.20362-2.747063 21.94388-21.968685 21.94388h-19.56263c-19.221622 0-21.968685-2.74026-21.968685-21.94388v-15.37891c0-19.20369 2.747063-21.94388 21.968685-21.94388z" style="fill:#545454"/>
  <path transform="matrix(.13229167 0 0 .13229167 -4.876802 261.66013)" d="M 361.9375,-212 C 507.2348,-212 528,-191.28677 528,-46.125 V 70.125 C 528,215.28618 507.2348,236 361.9375,236 H 214.0625 C 68.7652,236 48,215.28618 48,70.125 V -46.125 C 48,-191.28677 68.7652,-212 214.0625,-212 Z" clip-path="url(#clipPath1082-3-367)" style="fill:none;opacity:.4;stroke-linecap:round;stroke-linejoin:round;stroke-width:8;stroke:url(#linearGradient1108)"/>
  <g transform="matrix(1.0193681 0 0 1.0193681 .27205261 -5.1983005)">
   <path d="m39.661057 241.12043c14.416219 0 16.476513 2.05513 16.476513 16.4579v11.53419c0 14.4027-2.060294 16.4579-16.476513 16.4579h-14.671974c-14.416219 0-16.476513-2.0552-16.476513-16.4579v-11.53419c0-14.40277 2.0602936-16.4579 16.476513-16.4579z" style="fill:url(#linearGradient2193)"/>
   <g transform="matrix(.39649552 0 0 .39649331 61.219725 251.12349)" style="enable-background:new">
    <path transform="matrix(.65462587 0 0 .65462951 -155.07517 -53.250301)" d="m33.824219 124.75391v25.89648c0 6.93621 0.125644 13.1292 0.451172 18.65625s0.8522 10.38933 1.658203 14.66211c0.403001 2.13639 0.875562 4.12469 1.427734 5.97656s1.183585 3.56759 1.904297 5.1543 1.530834 3.04581 2.439453 4.38672c0.90862 1.3409 1.915355 2.56326 3.03125 3.67773 1.115896 1.11447 2.341054 2.11995 3.683594 3.02735 1.34254 0.90739 2.802073 1.71586 4.390625 2.43554s3.306223 1.35102 5.160156 1.90235c1.853933 0.55132 3.84374 1.02344 5.982422 1.42578 4.277365 0.80467 9.145163 1.32941 14.677734 1.6543 5.532572 0.32488 11.731104 0.44921 18.673829 0.44921h56.527342c6.94273 0 13.14126-0.12433 18.67383-0.44921 5.53257-0.32489 10.39842-0.84963 14.67578-1.6543 2.13868-0.40234 4.13044-0.87446 5.98438-1.42578 1.85393-0.55133 3.56965-1.18267 5.1582-1.90235s3.05004-1.52815 4.39258-2.43554c1.34254-0.9074 2.5677-1.91288 3.68359-3.02735 1.1159-1.11447 2.12263-2.33683 3.03125-3.67773 0.90862-1.34091 1.71874-2.80001 2.43945-4.38672 0.72072-1.58671 1.35213-3.30243 1.9043-5.1543s1.02473-3.84017 1.42773-5.97656c0.80601-4.27278 1.33268-9.13506 1.65821-14.66211s0.44922-11.72004 0.44922-18.65625v-24.40625c-0.20789-1.52698-0.27881-3.40433-0.54297-4.80469-0.82083-4.35135-1.92855-8.10222-3.39649-11.33398-0.73397-1.61588-1.55709-3.10319-2.48242-4.46875s-1.95147-2.60918-3.08789-3.74414-2.38276-2.161867-3.75-3.085939c-1.36723-0.924074-2.85488-1.745608-4.47266-2.478516-3.23554-1.465816-6.99357-2.571162-11.3496-3.390625-4.35604-0.819463-9.30903-1.354689-14.94336-1.685547-5.63434-0.330858-11.94716-0.455078-19.01758-0.455078h-57.568361c-7.070421 0-13.383246 0.124221-19.017578 0.455078-5.634333 0.330858-10.591236 0.866084-14.947266 1.685547-4.356045 0.819463-8.112113 1.924809-11.347656 3.390625-1.617764 0.732908-3.103464 1.554442-4.470703 2.478516-1.367239 0.924072-2.615533 1.950979-3.751954 3.085939-1.13642 1.13496-2.162568 2.37858-3.08789 3.74414-0.925338 1.36556-1.750399 2.85287-2.484375 4.46875-1.467938 3.23176-2.571743 6.98263-3.392578 11.33398-0.182229 0.96602-0.219942 2.28858-0.375 3.31446z" style="fill:#71d375"/>
    <path d="m-50.3125 80.550781-1.830078 3.140625 1.830078-3.080078z" style="fill:#e04d2b"/>
    <path transform="matrix(.65462587 0 0 .65462951 -155.07517 -53.250301)" d="m217.31055 134.29688h0.91015c-0.21035-2.93489-0.58683-5.4256-0.91015-8.05274v8.05274z" style="fill:#e04d2b"/>
    <path transform="matrix(.65462587 0 0 .65462951 -155.07517 -53.250301)" d="m120.56836 214.05859h6.0918l33.42187-13.49218 0.3125-25.75-38.71094-40.51953h95.62696v-8.05274c-0.19291-1.56749-0.27884-3.40449-0.54297-4.80469-0.82083-4.35135-1.92855-8.10222-3.39649-11.33398-0.73397-1.61588-1.55709-3.10319-2.48242-4.46875s-1.95147-2.60918-3.08789-3.74414-2.38276-2.161867-3.75-3.085939c-1.36723-0.924074-2.85488-1.745608-4.47266-2.478516-3.23554-1.465816-6.99357-2.571162-11.3496-3.390625-4.35604-0.819463-9.30903-1.354689-14.94336-1.685547-5.63434-0.330858-11.94716-0.455078-19.01758-0.455078h-57.568361c-7.070421 0-13.383246 0.124221-19.017578 0.455078-5.634333 0.330858-10.591236 0.866084-14.947266 1.685547-4.356045 0.819463-8.112113 1.924809-11.347656 3.390625-1.617764 0.732908-3.103464 1.554442-4.470703 2.478516-1.367239 0.924072-2.615533 1.950979-3.751954 3.085939-1.13642 1.13496-2.162568 2.37858-3.08789 3.74414-0.462539 0.68258-0.826746 1.49048-1.240234 2.23437 15.030463 28.37786 49.923828 92.26953 49.923828 92.26953l31.808594 13.91797z" style="fill:#e04d2b"/>
    <path transform="matrix(.65462587 0 0 .65462951 -155.07517 -53.250301)" d="m144.54297 214.05859h9.28906c6.94273 0 13.14126-0.12433 18.67383-0.44921 5.53257-0.32489 10.39842-0.84963 14.67578-1.6543 2.13868-0.40234 4.13044-0.87446 5.98438-1.42578 1.85393-0.55133 3.56965-1.18267 5.1582-1.90235s3.05004-1.52815 4.39258-2.43554c1.34254-0.9074 2.5677-1.91288 3.68359-3.02735 1.1159-1.11447 2.12263-2.33683 3.03125-3.67773 0.90862-1.34091 1.71874-2.80001 2.43945-4.38672 0.72072-1.58671 1.35213-3.30243 1.9043-5.1543s1.02473-3.84017 1.42773-5.97656c0.80601-4.27278 1.33268-9.13506 1.65821-14.66211s0.44922-11.72004 0.44922-18.65625v-16.35351h-95.62696l38.71094 40.51953-0.3125 25.75-10.7793 4.35156 0.35547 0.375-5.11523 8.76562zm15.49219-9.66601v0.0918l-2.79688 4.70507 2.79688-4.79687z" style="fill:#f9db46"/>
    <path transform="matrix(.65462587 0 0 .65462951 -155.07517 -53.250301)" d="m99.808594 214.05859h51.390626c11.32105-8.16376 18.39755-21.31741 18.40039-35.69726v-0.00195c-5e-5 -24.29734-19.81978-44.117-44.11719-44.11719-24.29741 1.9e-4 -44.11714 19.81985-44.117186 44.11719v0.0039 0.00195c0.015142 14.38668 7.108775 27.54022 18.44336 35.69336zm25.673826-68.30859c18.07754 1.4e-4 32.60934 14.53199 32.60938 32.60938-0.00336 13.11294-7.85184 24.83377-19.86133 29.94531h-25.41797c-12.04257-5.08874-19.925596-16.81686-19.939453-29.95117 0.003208-18.07462 14.533823-32.60338 32.609373-32.60352z" style="fill:#f3f3f3"/>
   </g>
   <path transform="matrix(.25955622 0 0 .25955622 -.26688358 230.0101)" d="m117.86133 214.05859h15.1875a34.379585 35.624097 0 0 0 26.8125-34.70507 34.379585 35.624097 0 0 0-34.37891-35.62305 34.379585 35.624097 0 0 0-34.378904 35.62305 34.379585 35.624097 0 0 0 26.757814 34.70507z" style="fill-opacity:.99607843;fill:#00a5ff"/>
  </g>
 </g>
</svg>

<svg xmlns="http://www.w3.org/2000/svg" xmlns:xlink="http://www.w3.org/1999/xlink" width="256" height="256" version="1.1" viewBox="0 0 67.73 67.73">
 <defs>
  <linearGradient id="linearGradient1108" x1="296" x2="296" y1="-212" y2="236" gradientUnits="userSpaceOnUse" xlink:href="#linearGradient1013"/>
  <linearGradient id="linearGradient1013">
   <stop offset="0" style="stop-color:#ffffff"/>
   <stop style="stop-color:#ffffff;stop-opacity:0.09803922" offset=".125"/>
   <stop style="stop-color:#000000;stop-opacity:0.09803922" offset=".925"/>
   <stop offset="1" style="stop-color:#000000;stop-opacity:0.49803922"/>
  </linearGradient>
  <clipPath id="clipPath1082-3-367" clipPathUnits="userSpaceOnUse">
   <path d="M 361.9375,-212 C 507.2348,-212 528,-191.28677 528,-46.125 V 70.125 C 528,215.28618 507.2348,236 361.9375,236 H 214.0625 C 68.7652,236 48,215.28618 48,70.125 V -46.125 C 48,-191.28677 68.7652,-212 214.0625,-212 Z" style="fill:#8c59d9"/>
  </clipPath>
  <filter style="color-interpolation-filters:sRGB" id="filter938" width="1.046" height="1.05" x="-.02" y="-.03">
   <feGaussianBlur stdDeviation="2.32"/>
  </filter>
  <filter style="color-interpolation-filters:sRGB" id="filter4569" width="1.023" height="1.025" x="-.01" y="-.01">
   <feGaussianBlur stdDeviation="1.16"/>
  </filter>
  <linearGradient id="linearGradient2193" x1="88" x2="256" y1="28" y2="284" gradientTransform="matrix(0.19843753,0,0,0.19843753,2.1625684,232.38917)" gradientUnits="userSpaceOnUse" xlink:href="#linearGradient4632-92-3-0-8-1-7-1"/>
  <linearGradient id="linearGradient4632-92-3-0-8-1-7-1">
   <stop style="stop-color:#fafafa" offset="0"/>
   <stop style="stop-color:#e1e1e1" offset="1"/>
  </linearGradient>
 </defs>
 <g transform="translate(0,-229.26666)">
  <path d="m 162.53675,3.5680001 c 72.64865,0 83.03125,10.3566149 83.03125,82.9375049 v 58.125005 c 0,72.58059 -10.3826,82.9375 -83.03125,82.9375 H 88.599254 C 15.9506,227.56801 5.568,217.2111 5.568,144.63051 V 86.505505 c 0,-72.58089 10.3826,-82.9375049 83.031254,-82.9375049 z" transform="matrix(0.26458333,0,0,0.26458333,-1.8735229e-8,232.67026)" style="opacity:0.1;filter:url(#filter4569)"/>
  <path style="opacity:0.2;filter:url(#filter938)" d="m 162.53675,5.5680001 c 72.64865,0 83.03125,10.3566149 83.03125,82.9375049 v 58.125005 c 0,72.58059 -10.3826,82.9375 -83.03125,82.9375 H 88.599254 C 15.9506,229.56801 5.568,219.2111 5.568,146.63051 V 88.505505 c 0,-72.58089 10.3826,-82.9375049 83.031254,-82.9375049 z" transform="matrix(0.26458333,0,0,0.26458333,-1.8735229e-8,232.67026)"/>
  <path style="fill:#545454" d="m 43.004513,233.61429 c 19.221622,0 21.968685,2.74019 21.968685,21.94388 v 15.37891 c 0,19.20362 -2.747063,21.94388 -21.968685,21.94388 h -19.56263 c -19.221622,0 -21.968685,-2.74026 -21.968685,-21.94388 v -15.37891 c 0,-19.20369 2.747063,-21.94388 21.968685,-21.94388 z"/>
  <path d="M 361.9375,-212 C 507.2348,-212 528,-191.28677 528,-46.125 V 70.125 C 528,215.28618 507.2348,236 361.9375,236 H 214.0625 C 68.7652,236 48,215.28618 48,70.125 V -46.125 C 48,-191.28677 68.7652,-212 214.0625,-212 Z" clip-path="url(#clipPath1082-3-367)" transform="matrix(0.13229167,0,0,0.13229167,-4.876802,261.66013)" style="opacity:0.4;fill:none;stroke:url(#linearGradient1108);stroke-width:8;stroke-linecap:round;stroke-linejoin:round"/>
  <g transform="matrix(1.0193681,0,0,1.0193681,0.27205261,-5.1983005)">
   <path style="fill:url(#linearGradient2193)" d="m 39.661057,241.12043 c 14.416219,0 16.476513,2.05513 16.476513,16.4579 v 11.53419 c 0,14.4027 -2.060294,16.4579 -16.476513,16.4579 H 24.989083 c -14.416219,0 -16.4765126,-2.0552 -16.4765126,-16.4579 v -11.53419 c 0,-14.40277 2.0602936,-16.4579 16.4765126,-16.4579 z"/>
   <g style="enable-background:new" transform="matrix(0.39649552,0,0,0.39649331,61.219725,251.12349)">
    <path style="fill:#71d375" d="M 33.824219 124.75391 L 33.824219 150.65039 C 33.824219 157.5866 33.949863 163.77959 34.275391 169.30664 C 34.600919 174.83369 35.127591 179.69597 35.933594 183.96875 C 36.336595 186.10514 36.809156 188.09344 37.361328 189.94531 C 37.9135 191.79718 38.544913 193.5129 39.265625 195.09961 C 39.986337 196.68632 40.796459 198.14542 41.705078 199.48633 C 42.613698 200.82723 43.620433 202.04959 44.736328 203.16406 C 45.852224 204.27853 47.077382 205.28401 48.419922 206.19141 C 49.762462 207.0988 51.221995 207.90727 52.810547 208.62695 C 54.399099 209.34663 56.11677 209.97797 57.970703 210.5293 C 59.824636 211.08062 61.814443 211.55274 63.953125 211.95508 C 68.23049 212.75975 73.098288 213.28449 78.630859 213.60938 C 84.163431 213.93426 90.361963 214.05859 97.304688 214.05859 L 153.83203 214.05859 C 160.77476 214.05859 166.97329 213.93426 172.50586 213.60938 C 178.03843 213.28449 182.90428 212.75975 187.18164 211.95508 C 189.32032 211.55274 191.31208 211.08062 193.16602 210.5293 C 195.01995 209.97797 196.73567 209.34663 198.32422 208.62695 C 199.91277 207.90727 201.37426 207.0988 202.7168 206.19141 C 204.05934 205.28401 205.2845 204.27853 206.40039 203.16406 C 207.51629 202.04959 208.52302 200.82723 209.43164 199.48633 C 210.34026 198.14542 211.15038 196.68632 211.87109 195.09961 C 212.59181 193.5129 213.22322 191.79718 213.77539 189.94531 C 214.32756 188.09344 214.80012 186.10514 215.20312 183.96875 C 216.00913 179.69597 216.5358 174.83369 216.86133 169.30664 C 217.18686 163.77959 217.31055 157.5866 217.31055 150.65039 L 217.31055 126.24414 C 217.10266 124.71716 217.03174 122.83981 216.76758 121.43945 C 215.94675 117.0881 214.83903 113.33723 213.37109 110.10547 C 212.63712 108.48959 211.814 107.00228 210.88867 105.63672 C 209.96334 104.27116 208.9372 103.02754 207.80078 101.89258 C 206.66436 100.75762 205.41802 99.730713 204.05078 98.806641 C 202.68355 97.882567 201.1959 97.061033 199.57812 96.328125 C 196.34258 94.862309 192.58455 93.756963 188.22852 92.9375 C 183.87248 92.118037 178.91949 91.582811 173.28516 91.251953 C 167.65082 90.921095 161.338 90.796875 154.26758 90.796875 L 96.699219 90.796875 C 89.628798 90.796875 83.315973 90.921096 77.681641 91.251953 C 72.047308 91.582811 67.090405 92.118037 62.734375 92.9375 C 58.37833 93.756963 54.622262 94.862309 51.386719 96.328125 C 49.768955 97.061033 48.283255 97.882567 46.916016 98.806641 C 45.548777 99.730713 44.300483 100.75762 43.164062 101.89258 C 42.027642 103.02754 41.001494 104.27116 40.076172 105.63672 C 39.150834 107.00228 38.325773 108.48959 37.591797 110.10547 C 36.123859 113.33723 35.020054 117.0881 34.199219 121.43945 C 34.01699 122.40547 33.979277 123.72803 33.824219 124.75391 z" transform="matrix(0.65462587,0,0,0.65462951,-155.07517,-53.250301)"/>
    <path style="fill:#e04d2b" d="m -50.3125,80.550781 -1.830078,3.140625 1.830078,-3.080078 z"/>
    <path style="fill:#e04d2b" d="M 217.31055 134.29688 L 218.2207 134.29688 C 218.01035 131.36199 217.63387 128.87128 217.31055 126.24414 L 217.31055 134.29688 z" transform="matrix(0.65462587,0,0,0.65462951,-155.07517,-53.250301)"/>
    <path style="fill:#e04d2b" d="M 120.56836 214.05859 L 126.66016 214.05859 L 160.08203 200.56641 L 160.39453 174.81641 L 121.68359 134.29688 L 217.31055 134.29688 L 217.31055 126.24414 C 217.11764 124.67665 217.03171 122.83965 216.76758 121.43945 C 215.94675 117.0881 214.83903 113.33723 213.37109 110.10547 C 212.63712 108.48959 211.814 107.00228 210.88867 105.63672 C 209.96334 104.27116 208.9372 103.02754 207.80078 101.89258 C 206.66436 100.75762 205.41802 99.730713 204.05078 98.806641 C 202.68355 97.882567 201.1959 97.061033 199.57812 96.328125 C 196.34258 94.862309 192.58455 93.756963 188.22852 92.9375 C 183.87248 92.118037 178.91949 91.582811 173.28516 91.251953 C 167.65082 90.921095 161.338 90.796875 154.26758 90.796875 L 96.699219 90.796875 C 89.628798 90.796875 83.315973 90.921096 77.681641 91.251953 C 72.047308 91.582811 67.090405 92.118037 62.734375 92.9375 C 58.37833 93.756963 54.622262 94.862309 51.386719 96.328125 C 49.768955 97.061033 48.283255 97.882567 46.916016 98.806641 C 45.548777 99.730713 44.300483 100.75762 43.164062 101.89258 C 42.027642 103.02754 41.001494 104.27116 40.076172 105.63672 C 39.613633 106.3193 39.249426 107.1272 38.835938 107.87109 C 53.866401 136.24895 88.759766 200.14062 88.759766 200.14062 L 120.56836 214.05859 z" transform="matrix(0.65462587,0,0,0.65462951,-155.07517,-53.250301)"/>
    <path style="fill:#f9db46" d="M 144.54297 214.05859 L 153.83203 214.05859 C 160.77476 214.05859 166.97329 213.93426 172.50586 213.60938 C 178.03843 213.28449 182.90428 212.75975 187.18164 211.95508 C 189.32032 211.55274 191.31208 211.08062 193.16602 210.5293 C 195.01995 209.97797 196.73567 209.34663 198.32422 208.62695 C 199.91277 207.90727 201.37426 207.0988 202.7168 206.19141 C 204.05934 205.28401 205.2845 204.27853 206.40039 203.16406 C 207.51629 202.04959 208.52302 200.82723 209.43164 199.48633 C 210.34026 198.14542 211.15038 196.68632 211.87109 195.09961 C 212.59181 193.5129 213.22322 191.79718 213.77539 189.94531 C 214.32756 188.09344 214.80012 186.10514 215.20312 183.96875 C 216.00913 179.69597 216.5358 174.83369 216.86133 169.30664 C 217.18686 163.77959 217.31055 157.5866 217.31055 150.65039 L 217.31055 134.29688 L 121.68359 134.29688 L 160.39453 174.81641 L 160.08203 200.56641 L 149.30273 204.91797 L 149.6582 205.29297 L 144.54297 214.05859 z M 160.03516 204.39258 L 160.03516 204.48438 L 157.23828 209.18945 L 160.03516 204.39258 z" transform="matrix(0.65462587,0,0,0.65462951,-155.07517,-53.250301)"/>
    <path style="fill:#f3f3f3" d="M 99.808594 214.05859 L 151.19922 214.05859 C 162.52027 205.89483 169.59677 192.74118 169.59961 178.36133 L 169.59961 178.35938 C 169.59956 154.06204 149.77983 134.24238 125.48242 134.24219 C 101.18501 134.24238 81.36528 154.06204 81.365234 178.35938 L 81.365234 178.36328 L 81.365234 178.36523 C 81.380376 192.75191 88.474009 205.90545 99.808594 214.05859 z M 125.48242 145.75 C 143.55996 145.75014 158.09176 160.28199 158.0918 178.35938 C 158.08844 191.47232 150.23996 203.19315 138.23047 208.30469 L 112.8125 208.30469 C 100.76993 203.21595 92.886904 191.48783 92.873047 178.35352 C 92.876255 160.2789 107.40687 145.75014 125.48242 145.75 z" transform="matrix(0.65462587,0,0,0.65462951,-155.07517,-53.250301)"/>
   </g>
   <path style="fill:#00a5ff;fill-opacity:0.99607843" d="M 117.86133 214.05859 L 133.04883 214.05859 A 34.379585 35.624097 0 0 0 159.86133 179.35352 A 34.379585 35.624097 0 0 0 125.48242 143.73047 A 34.379585 35.624097 0 0 0 91.103516 179.35352 A 34.379585 35.624097 0 0 0 117.86133 214.05859 z" transform="matrix(0.25955622,0,0,0.25955622,-0.26688358,230.0101)"/>
  </g>
 </g>
</svg>
